X:20
T:The Willow Tree / The Templehouse Reel
R:reel
M:C|
L:1/8
Z:Julie Ross
D: O'Connell's Trip to Parliament: Eavesdropper (Kevin Burke & Jackie Daly)
K:D
"aka O'Connell's Trip to Parliament"
dcAF G2FG | Adde fdec | dcAF G2FG | AFGE FDD2 |
dcAF G2FG | Adde fdec | dcAF G2FG | AFGE FDD2 ||
f2fa gfed | cdef g2fe | defg a2ge | a2ge fdde |
f3a gfed | cdef g2fe | a2ge a2ge | a2ge fdde ||
K:G
"The Templehouse Reel"
EFGA B2AF|D2ED ADFD|EFGA BEE2|cBAc BEED|
EFGA BFAF|D2ED ADFD|EFGA BEE2|cBAc BEE2||
gfef gfeg|fdde fdd2|gfef gfed|B2Ac BEE2|
g2ef gfeg|fdd^c dfaf|e3f gfed|B2Ac BEED||
